X: 499
P: Longways for as many as will
M: 3/2
L: 1/8
K: Gm
|:\
g4 (^f3=e/f/) g4 | d2(cB) (AB)c2 B2G2 |\
g4 (a3g/a/) b4 | f2(ed) cde2 d2B2 :|\
d2 f4 f2 f4 | c2 e4 e2 e4 |
d2 a4 a2 a2d2 | b2a2 g2^f2 g4 |\
def2 Bcd2 ABc2 | B2G2 G3^F G4 |]

